X: 67
T:My Darling Asleep
% Nottingham Music Database
S:Trad, arr Phil Rowe
M:6/8
K:D
"D"fdd "A"cAA|"G"BGG "A7"A2G|"D"FAA def|"A7"gfg eaa|
"D"fdd "A"cAA|"G"BGG "A7"A2G|"D"FAA def|"A7"gfe "D"d3::
"D"FAA dAA|"D"FAA "G"BAA|"D"FAA def|"Em"gfg "A7"eaa|
"D"fdd "A"cAA|"G"BGG "A7"A2G|"D"FAA def|"A7"gfe "D"d3:|<end>
<start>
